src/icons/svg/vote.svg

<?xml version="1.0" standalone="no"?><!DOCTYPE svg PUBLIC "-//W3C//DTD SVG 1.1//EN" "http://www.w3.org/Graphics/SVG/1.1/DTD/svg11.dtd"><svg t="1582027083187" class="icon" viewBox="0 0 1024 1024" version="1.1" xmlns="http://www.w3.org/2000/svg" p-id="14518" xmlns:xlink="http://www.w3.org/1999/xlink" width="16" height="16"><defs><style type="text/css"></style></defs><path d="M542.756807 835.34284l116.188246-306.961546h-46.10026s-94.488609 245.684544-100.063975 265.195794c-7.203832-25.788142-99.472265-265.195795-99.472264-265.195794h-45.876292l116.774899 306.961546h58.549646z m0 0" p-id="14519"></path><path d="M972.429856 144.735534h-103.017105V42.424651c0-31.179998-8.423014-42.424651-45.403791-42.424651H203.211848c-35.819393 0-45.409571 12.998831-45.409571 42.424651v102.310883H51.556417C2.482074 144.735534 0 153.472465 0 184.417296v793.39394c0 33.295415 9.417505 46.189486 51.556417 46.189486h920.873439c40.687452 0 51.555333-8.800148 51.555333-46.189486V184.417296c0-31.725108-2.486409-39.681762-51.555333-39.681762zM198.856387 36.598225l630.199085 0.732954v213.688507H198.856387V36.598225z m782.043806 945.3958H39.016721v-582.956948h941.883472v582.962366-0.005418z m-29.457972-624.697412H39.016721v-174.800026h118.790975v68.522738c-20.033964 0-42.509181-1.115145-42.471974 22.934352 0.030705 20.034325 16.239507 19.328102 36.273471 19.328103h720.766803c20.034686 0 36.274193 0 36.274194-20.035409 0-20.034686-19.202391-22.232826-39.237439-22.232826V182.496587l111.487442 0.387249v174.417834h-29.457972v-0.005057z m0 0" p-id="14520"></path></svg>

<svg class="icon" viewBox="0 0 1024 1024" xmlns="http://www.w3.org/2000/svg" width="16" height="16"><defs><style/></defs><path d="M542.757 835.343L658.945 528.38h-46.1S518.356 774.066 512.78 793.577c-7.204-25.788-99.472-265.196-99.472-265.196h-45.877l116.775 306.962h58.55zm0 0"/><path d="M972.43 144.736H869.413V42.425C869.413 11.245 860.99 0 824.009 0H203.212c-35.82 0-45.41 12.999-45.41 42.425v102.31H51.556C2.482 144.736 0 153.473 0 184.418v793.394c0 33.296 9.418 46.19 51.556 46.19H972.43c40.687 0 51.555-8.8 51.555-46.19V184.417c0-31.725-2.486-39.681-51.555-39.681zM198.856 36.598l630.2.733V251.02h-630.2V36.598zM980.9 981.994H39.017V399.037H980.9V982v-.005zm-29.458-624.697H39.017v-174.8h118.79v68.522c-20.033 0-42.508-1.115-42.471 22.935.03 20.034 16.24 19.328 36.273 19.328h720.767c20.035 0 36.274 0 36.274-20.036 0-20.034-19.202-22.232-39.237-22.232v-68.517l111.487.387v174.418h-29.458v-.005zm0 0"/></svg>
